assets/icons/tasks-icon.svg

<?xml version="1.0" encoding="utf-8"?>
<!-- Generator: Adobe Illustrator 25.4.1, SVG Export Plug-In . SVG Version: 6.00 Build 0)  -->
<svg version="1.1" id="Layer_1" xmlns="http://www.w3.org/2000/svg" xmlns:xlink="http://www.w3.org/1999/xlink" x="0px" y="0px"
	 viewBox="0 0 24 24" style="enable-background:new 0 0 24 24;" xml:space="preserve">
<style type="text/css">
	.st0{fill:#FFFFFF;}
</style>
<path class="st0" d="M3,6v16h18v2H3c-1.1,0-2-0.9-2-2V6H3 M16,9h5.5L16,3.5V9 M7,2h10l6,6v10c0,1.1-0.9,2-2,2H7c-1.1,0-2-0.9-2-2V4
	C5,2.9,5.9,2,7,2 M7,4v14h14v-7h-7V4H7z"/>
</svg>

<svg xmlns="http://www.w3.org/2000/svg" viewBox="0 0 24 24"><path d="M3,6V22H21V24H3A2,2 0 0,1 1,22V6H3M16,9H21.5L16,3.5V9M7,2H17L23,8V18A2,2 0 0,1 21,20H7C5.89,20 5,19.1 5,18V4A2,2 0 0,1 7,2M7,4V18H21V11H14V4H7Z" /></svg>
